X: 65
T:Peeler's Jacket, The
T:Flannel Jacket, The
R:reel
Z:id:hn-reel-387
M:C|
K:G
G2BG DGBG|FGAB c2Bc|dggf d2eg|fdcA BGAF|
G2BG DGBG|FGAB c2Bc|dggf d2eg|fdcA BG~G2:|
|:gagf d2ef|gfga bgaf|gagf d2eg|fdcA BGBd|
gagf d2ef|gfga bgaf|gbag fdeg|1 fdcA BG~G2:|2 fdcA BGAF||
"variations"
|:DGGF GBAG|FGAB c2Bc|dggf d2 (3efg|fdcA BGAF|
DGGF GBAG|FGAB c2Bc|dggf d2eg|fdcA BG~G2:|
|:~g3f d2ef|~g3a bgaf|gagf d2eg|fdcA BG~G2|
gagf d2ef|~g3a bgaf|gbag fdeg|1 fdcA BG~G2:|2 fdcA BGAF||

